img/master-flower-2.svg

<svg width="304" height="473" viewBox="0 0 304 473" fill="none" xmlns="http://www.w3.org/2000/svg">
<path d="M65.959 276.083C57.5836 255.197 50.0892 236.508 23.325 213.635C23.325 213.635 61.4736 223.024 100.088 237.051C126.642 246.696 159.501 259.737 174.241 272.223C197.97 292.324 217.287 316.748 234.008 343.499C231.186 332.371 229.479 324.629 229.479 324.629L228.217 291.436L224.65 271.404L218.835 250.837L212.385 233.956L205.642 219.746L186.879 188.975L177.204 176.261L163.718 160.448L150.672 146.933L137.284 134.432L133.033 129.036L134.401 124.976L137.43 126.793L138.896 126.045L143.391 127.114L154.043 135.127L168.946 148.536L181.992 162.052L197.042 180.429L220.105 218.251L224.893 229.256L225.498 230.838C223.692 213.797 223.44 197.224 226.453 181.888C228 174.015 234.691 162.341 240.294 153.261C248.441 140.057 257.47 128.788 257.47 128.788C259.055 138.41 262.214 147.369 265.323 156.185C268.946 166.461 272.5 176.542 273.413 187.249C275.109 207.142 271.595 217.015 265.171 224.928C259.753 231.602 256.031 235.753 252.77 239.39C248.331 244.343 244.744 248.343 238.894 256.459C237.793 257.985 236.946 261.448 236.317 265.178L236.376 265.421L239.651 288.125L239.895 309.012L242.17 335.417C242.17 335.417 246.522 355.666 253.375 377.41C263.982 397.573 273.65 418.502 283.034 439.477C293.793 456.096 303.891 469.378 303.891 469.378L301.008 472.529L296.513 471.461L293.143 468.359C293.143 468.359 290.492 464.87 286.462 459.208L286.456 459.21C286.456 459.21 286.443 459.189 286.419 459.147C281.383 452.069 274.21 441.622 267.362 430.354C262.996 424.634 258.593 419.653 255.014 417.255C254.259 416.75 253.509 416.246 252.761 415.743C234.09 403.198 216.793 391.575 165.093 379.153C138.095 372.666 106.526 351.094 83.303 312.567C75.196 299.117 70.4508 287.284 65.959 276.083Z" fill="#7BB361"/>
<path d="M26.7231 55.0669L23.3355 59.266L21.8582 64.1402L22.219 68.7647L24.4902 74.0645L31.1496 82.0395L39.575 88.84L53.2357 97.266L68.7344 105.442L54.2364 104.14L43.559 104.189L32.9538 105.162L25.1778 106.686L16.1316 109.784L9.49121 113.958L6.87838 116.182L3.4908 120.381L0.743165 126.83L0.824884 133.829L2.10477 138.329L6.78178 144.704L14.1438 149.779L23.6952 153.155L34.0214 154.557L45.1944 154.908L53.0425 154.31L59.8994 152.911L69.0178 150.737L82.515 145.165L91.4169 140.217L94.0298 137.992L94.3906 142.617L94.6166 151.466L95.2661 159.79L97.8981 169.714L101.873 178.989L107.117 186.689L115.047 193.089L120.706 194.19L125.725 193.041L129.256 190.691L133.067 185.968L136.734 179.394L139.544 167.796L139.174 157.097L137.605 148.897L134.054 139.098L130.72 132.073L138.063 125L149.939 122.452L163.084 118.33L172.978 114.181L180.537 109.883L185.339 105.959L190.844 99.1357L193.52 91.762L193.159 87.1374L191.879 82.6378L190.815 80.9128L185.859 76.9125L179.633 74.4869L170.721 73.3607L157.855 75.1087L147.466 78.8568L136.726 84.0546L126.977 90.0525L128.652 75.8044L128.065 62.3308L127.487 54.9316L124.639 42.2326L120.52 31.1082L114.987 19.7087L110.238 12.4089L104.641 6.15875L97.7751 1.48329L90.7017 0.107421L83.8448 1.50626L79.8895 4.38037L75.655 9.62916L72.5561 17.5278L71.7188 24.6519L72.6569 36.6757L75.361 47.5248L78.912 57.3242L82.8865 66.5988L89.8346 78.2735L86.4375 76.3982L70.7222 65.4471L56.6381 57.546L46.0955 53.3699L39.0221 51.9941L31.174 52.5929L26.7231 55.0669Z" fill="#E8687F"/>
<path d="M95.8981 99.163L91.652 104.425L89.8904 111.692L91.3179 118.057L93.4501 121.515L97.4252 124.723L104.093 126.627L110.968 125.225L114.085 123.396L118.828 118.535L121.086 111.669L120.083 104.778L117.382 99.9914L113.904 97.1846L108.158 95.1545L103.053 95.3797L98.0934 97.4592L95.8981 99.163Z" fill="white"/>
</svg>

<svg width="304" height="473" fill="none" xmlns="http://www.w3.org/2000/svg"><path d="M65.959 276.083c-8.375-20.886-15.87-39.575-42.634-62.448 0 0 38.149 9.389 76.763 23.416 26.554 9.645 59.413 22.686 74.153 35.172 23.729 20.101 43.046 44.525 59.767 71.276-2.822-11.128-4.529-18.87-4.529-18.87l-1.262-33.193-3.567-20.032-5.815-20.567-6.45-16.881-6.743-14.21-18.763-30.771-9.675-12.714-13.486-15.813-13.046-13.515-13.388-12.501-4.251-5.396 1.368-4.06 3.029 1.817 1.466-.748 4.495 1.069 10.652 8.013 14.903 13.409 13.046 13.516 15.05 18.377 23.063 37.822 4.788 11.005.605 1.582c-1.806-17.041-2.058-33.614.955-48.95 1.547-7.873 8.238-19.547 13.841-28.627 8.147-13.204 17.176-24.473 17.176-24.473 1.585 9.622 4.744 18.581 7.853 27.397 3.623 10.276 7.177 20.357 8.09 31.064 1.696 19.893-1.818 29.766-8.242 37.679-5.418 6.674-9.14 10.825-12.401 14.462-4.439 4.953-8.026 8.953-13.876 17.069-1.101 1.526-1.948 4.989-2.577 8.719l.059.243 3.275 22.704.244 20.887 2.275 26.405s4.352 20.249 11.205 41.993c10.607 20.163 20.275 41.092 29.659 62.067 10.759 16.619 20.857 29.901 20.857 29.901l-2.883 3.151-4.495-1.068-3.37-3.102s-2.651-3.489-6.681-9.151l-.006.002-.037-.063c-5.036-7.078-12.209-17.525-19.057-28.793-4.366-5.72-8.769-10.701-12.348-13.099-.755-.505-1.505-1.009-2.253-1.512-18.671-12.545-35.968-24.168-87.668-36.59-26.998-6.487-58.567-28.059-81.79-66.586-8.107-13.45-12.852-25.283-17.344-36.484z" fill="#7BB361"/><path d="M26.723 55.067l-3.387 4.199-1.478 4.874.361 4.625 2.271 5.3 6.66 7.975 8.425 6.8 13.66 8.426 15.5 8.176-14.499-1.302-10.677.049-10.605.973-7.776 1.524-9.046 3.098-6.64 4.174-2.614 2.224-3.387 4.199-2.748 6.449.082 6.999 1.28 4.5 4.677 6.375 7.362 5.075 9.551 3.376 10.326 1.402 11.173.351 7.848-.598 6.857-1.399 9.119-2.174 13.497-5.572 8.902-4.948 2.613-2.225.36 4.625.227 8.849.65 8.324 2.631 9.924 3.975 9.275 5.244 7.7 7.93 6.4 5.659 1.101 5.019-1.149 3.531-2.35 3.811-4.723 3.667-6.574 2.81-11.598-.37-10.699-1.569-8.2-3.551-9.799-3.334-7.025 7.343-7.073 11.876-2.548 13.145-4.122 9.894-4.149 7.559-4.298 4.802-3.924 5.505-6.823 2.676-7.374-.361-4.625-1.28-4.5-1.064-1.724-4.956-4-6.226-2.426-8.912-1.126-12.866 1.748-10.389 3.748-10.74 5.198-9.749 5.997 1.675-14.248-.587-13.473-.578-7.4-2.848-12.698-4.119-11.125-5.533-11.4-4.749-7.3-5.597-6.25-6.866-4.675L90.702.107l-6.857 1.4-3.956 2.873-4.234 5.25-3.099 7.898-.837 7.124.938 12.024 2.704 10.849 3.551 9.8 3.974 9.274 6.949 11.674-3.397-1.875-15.716-10.95-14.084-7.902-10.542-4.176-7.074-1.376-7.848.599-4.45 2.474z" fill="#E8687F"/><path d="M95.898 99.163l-4.246 5.262-1.762 7.267 1.428 6.365 2.132 3.458 3.975 3.208 6.668 1.904 6.875-1.402 3.117-1.829 4.743-4.861 2.258-6.866-1.003-6.891-2.701-4.787-3.478-2.806-5.746-2.03-5.105.225-4.96 2.08-2.195 1.703z" fill="#fff"/></svg>
